lib/flags/et-ethiopia.svg

<svg xmlns="http://www.w3.org/2000/svg" fill="none" aria-hidden="true" viewBox="0 0 42 30"><g id="Country=ET - Ethiopia, Size=sm (36x24)" filter="url(#filter0_dd_91_28395)"><g clip-path="url(#clip0_91_28395)"><g id="flag"><mask id="mask0_91_28395" width="36" height="24" x="3" y="2" maskUnits="userSpaceOnUse" style="mask-type:alpha"><rect id="mask" width="36" height="24" x="3" y="2" fill="white"/></mask><g mask="url(#mask0_91_28395)"><g id="contents"><path id="background" fill="#FECA00" fill-rule="evenodd" d="M3 2V26H39V2H3Z" clip-rule="evenodd"/><mask id="mask1_91_28395" width="36" height="24" x="3" y="2" maskUnits="userSpaceOnUse" style="mask-type:alpha"><path id="background_2" fill="white" fill-rule="evenodd" d="M3 2V26H39V2H3Z" clip-rule="evenodd"/></mask><g mask="url(#mask1_91_28395)"><path id="top" fill="#5EAA22" fill-rule="evenodd" d="M3 2V10H39V2H3Z" clip-rule="evenodd"/><path id="bottom" fill="#E31D1C" fill-rule="evenodd" d="M3 18V26H39V18H3Z" clip-rule="evenodd"/><g id="mark"><path id="Oval 20" fill="#2B77B8" fill-rule="evenodd" d="M21 20C24.7279 20 27.75 17.3137 27.75 14C27.75 10.6863 24.7279 8 21 8C17.2721 8 14.25 10.6863 14.25 14C14.25 17.3137 17.2721 20 21 20Z" clip-rule="evenodd"/><path id="Star 9" fill-rule="evenodd" stroke="#FECA00" stroke-width="1.5" d="M21 16L17.8927 16.9265L18.8601 14.618L16.7524 12.382H19.6774L21 10L22.3225 12.382H25.312L23.1398 14.618L23.9108 16.9265L21 16Z" clip-rule="evenodd"/><path id="Path 42" stroke="#2B77B8" d="M20.6582 14.0344L18.313 18.3946"/><path id="Path 42_2" stroke="#2B77B8" d="M20.2891 13.4795H15.7891"/><path id="Path 42_3" stroke="#2B77B8" d="M21.1367 14.8376L25.5344 16.6418"/><path id="Path 42_4" stroke="#2B77B8" d="M22.0874 13.8736L25.2707 10.7764"/></g></g></g></g></g></g></g><defs><filter id="filter0_dd_91_28395" width="42" height="30" x="0" y="0" color-interpolation-filters="sRGB" filterUnits="userSpaceOnUse"><feFlood flood-opacity="0" result="BackgroundImageFix"/><feColorMatrix in="SourceAlpha" result="hardAlpha" values="0 0 0 0 0 0 0 0 0 0 0 0 0 0 0 0 0 0 127 0"/><feOffset dy="1"/><feGaussianBlur stdDeviation="1"/><feColorMatrix values="0 0 0 0 0.0627451 0 0 0 0 0.0941176 0 0 0 0 0.156863 0 0 0 0.06 0"/><feBlend in2="BackgroundImageFix" result="effect1_dropShadow_91_28395"/><feColorMatrix in="SourceAlpha" result="hardAlpha" values="0 0 0 0 0 0 0 0 0 0 0 0 0 0 0 0 0 0 127 0"/><feOffset dy="1"/><feGaussianBlur stdDeviation="1.5"/><feColorMatrix values="0 0 0 0 0.0627451 0 0 0 0 0.0941176 0 0 0 0 0.156863 0 0 0 0.1 0"/><feBlend in2="effect1_dropShadow_91_28395" result="effect2_dropShadow_91_28395"/><feBlend in="SourceGraphic" in2="effect2_dropShadow_91_28395" result="shape"/></filter><clipPath id="clip0_91_28395"><rect width="36" height="24" x="3" y="2" fill="white" rx="2"/></clipPath></defs></svg>

<svg xmlns="http://www.w3.org/2000/svg" fill="none" aria-hidden="true" viewBox="0 0 42 30"><g filter="url(#a)"><g clip-path="url(#b)"><mask id="c" width="36" height="24" x="3" y="2" maskUnits="userSpaceOnUse" style="mask-type:alpha"><path fill="#fff" d="M3 2h36v24H3z"/></mask><g mask="url(#c)"><path fill="#FECA00" fill-rule="evenodd" d="M3 2v24h36V2H3Z" clip-rule="evenodd"/><mask id="d" width="36" height="24" x="3" y="2" maskUnits="userSpaceOnUse" style="mask-type:alpha"><path fill="#fff" fill-rule="evenodd" d="M3 2v24h36V2H3Z" clip-rule="evenodd"/></mask><g mask="url(#d)"><path fill="#5EAA22" fill-rule="evenodd" d="M3 2v8h36V2H3Z" clip-rule="evenodd"/><path fill="#E31D1C" fill-rule="evenodd" d="M3 18v8h36v-8H3Z" clip-rule="evenodd"/><path fill="#2B77B8" fill-rule="evenodd" d="M21 20c3.728 0 6.75-2.686 6.75-6S24.728 8 21 8s-6.75 2.686-6.75 6 3.022 6 6.75 6Z" clip-rule="evenodd"/><path stroke="#FECA00" stroke-width="1.5" d="m21 16-3.107.927.967-2.309-2.108-2.236h2.925L21 10l1.323 2.382h2.989l-2.172 2.236.77 2.309L21 16Z" clip-rule="evenodd"/><path stroke="#2B77B8" d="m20.658 14.034-2.345 4.36m1.977-4.914h-4.5m5.347 1.358 4.397 1.804m-3.447-2.768 3.184-3.098"/></g></g></g></g><defs><clipPath id="b"><rect width="36" height="24" x="3" y="2" fill="#fff" rx="2"/></clipPath><filter id="a" width="42" height="30" x="0" y="0" color-interpolation-filters="sRGB" filterUnits="userSpaceOnUse"><feFlood flood-opacity="0" result="BackgroundImageFix"/><feColorMatrix in="SourceAlpha" result="hardAlpha" values="0 0 0 0 0 0 0 0 0 0 0 0 0 0 0 0 0 0 127 0"/><feOffset dy="1"/><feGaussianBlur stdDeviation="1"/><feColorMatrix values="0 0 0 0 0.0627451 0 0 0 0 0.0941176 0 0 0 0 0.156863 0 0 0 0.06 0"/><feBlend in2="BackgroundImageFix" result="effect1_dropShadow_91_28395"/><feColorMatrix in="SourceAlpha" result="hardAlpha" values="0 0 0 0 0 0 0 0 0 0 0 0 0 0 0 0 0 0 127 0"/><feOffset dy="1"/><feGaussianBlur stdDeviation="1.5"/><feColorMatrix values="0 0 0 0 0.0627451 0 0 0 0 0.0941176 0 0 0 0 0.156863 0 0 0 0.1 0"/><feBlend in2="effect1_dropShadow_91_28395" result="effect2_dropShadow_91_28395"/><feBlend in="SourceGraphic" in2="effect2_dropShadow_91_28395" result="shape"/></filter></defs></svg>
